Newaita/actions/32/format-justify-right.svg

<?xml version="1.0" encoding="UTF-8"?>
<svg xmlns="http://www.w3.org/2000/svg" xmlns:xlink="http://www.w3.org/1999/xlink" width="32pt" height="32pt" viewBox="0 0 32 32" version="1.1">
<g id="surface1">
<path style=" stroke:none;fill-rule:nonzero;fill:rgb(25.882354%,25.882354%,25.882354%);fill-opacity:1;" d="M 3.472656 4.21875 L 28.28125 4.21875 C 28.738281 4.21875 29.105469 4.515625 29.105469 4.878906 L 29.105469 5.542969 C 29.105469 5.90625 28.738281 6.203125 28.28125 6.203125 L 3.472656 6.203125 C 3.015625 6.203125 2.644531 5.90625 2.644531 5.542969 L 2.644531 4.878906 C 2.644531 4.515625 3.015625 4.21875 3.472656 4.21875 Z M 3.472656 4.21875 "/>
<path style=" stroke:none;fill-rule:nonzero;fill:rgb(25.882354%,25.882354%,25.882354%);fill-opacity:1;" d="M 11.164062 11.496094 L 28.527344 11.496094 C 28.847656 11.496094 29.105469 11.792969 29.105469 12.15625 L 29.105469 12.820312 C 29.105469 13.183594 28.847656 13.480469 28.527344 13.480469 L 11.164062 13.480469 C 10.84375 13.480469 10.585938 13.183594 10.585938 12.820312 L 10.585938 12.15625 C 10.585938 11.792969 10.84375 11.496094 11.164062 11.496094 Z M 11.164062 11.496094 "/>
<path style=" stroke:none;fill-rule:nonzero;fill:rgb(25.882354%,25.882354%,25.882354%);fill-opacity:1;" d="M 11.164062 26.050781 L 28.527344 26.050781 C 28.847656 26.050781 29.105469 26.34375 29.105469 26.710938 L 29.105469 27.371094 C 29.105469 27.738281 28.847656 28.035156 28.527344 28.035156 L 11.164062 28.035156 C 10.84375 28.035156 10.585938 27.738281 10.585938 27.371094 L 10.585938 26.710938 C 10.585938 26.34375 10.84375 26.050781 11.164062 26.050781 Z M 11.164062 26.050781 "/>
<path style=" stroke:none;fill-rule:nonzero;fill:rgb(25.882354%,25.882354%,25.882354%);fill-opacity:1;" d="M 11.164062 18.773438 L 28.527344 18.773438 C 28.847656 18.773438 29.105469 19.070312 29.105469 19.433594 L 29.105469 20.09375 C 29.105469 20.460938 28.847656 20.757812 28.527344 20.757812 L 11.164062 20.757812 C 10.84375 20.757812 10.585938 20.460938 10.585938 20.09375 L 10.585938 19.433594 C 10.585938 19.070312 10.84375 18.773438 11.164062 18.773438 Z M 11.164062 18.773438 "/>
</g>
</svg>

<svg xmlns="http://www.w3.org/2000/svg" width="32pt" height="32pt" viewBox="0 0 32 32"><g fill="#424242"><path d="M3.473 4.219H28.28c.457 0 .824.297.824.66v.664c0 .363-.367.66-.824.66H3.473c-.457 0-.828-.297-.828-.66v-.664c0-.363.37-.66.828-.66zm0 0M11.164 11.496h17.363c.32 0 .578.297.578.66v.664c0 .364-.257.66-.578.66H11.164c-.32 0-.578-.296-.578-.66v-.664c0-.363.258-.66.578-.66zm0 0M11.164 26.05h17.363c.32 0 .578.294.578.66v.661c0 .367-.257.664-.578.664H11.164c-.32 0-.578-.297-.578-.664v-.66c0-.367.258-.66.578-.66zm0 0M11.164 18.773h17.363c.32 0 .578.297.578.66v.66c0 .368-.257.665-.578.665H11.164c-.32 0-.578-.297-.578-.664v-.66c0-.364.258-.66.578-.66zm0 0"/></g></svg>
